X: 273
T: Polska efter Smultrongärds Ida
B: Melodier från Upplands bruk och Fyris bygder häfte 1, s. 20
O: Uppland
R: Polska
S: uppteckning efter G Gustavsson, Knypplan [[ ]]
B: Jämför [[http://www.smus.se/earkiv/fmk/browselarge.php?lang=sw&katalogid=M+147&bildnr=00007|SMUS - katalog M147 bild 7]] (polonäs nr 14)
B: Jämför [[http://www.smus.se/earkiv/fmk/browsevol.php?lang=sw&katalogid=M+23&bildnr=00098|SMUS - katalog M23 bild 98]] (nr 412a) från [[Platser/Västmanland]]
Z: 2008-06-01 av Nils L
D: Skivan "Hårdhajen" med gruppen [[!Hulling]] utgiven på Drone, spår 3 ([[http://www.drone.se/mp3/drone/DROCD015x03.mp3|ljudprov - mp3]])
M: 3/4
L: 1/16
K: C
G2>c2 e2c2 (dc)BA | G2>c2 e2c2 (dc)BA | G2>c2 c2e2 e2g2 | g2>B2 d4 d4 |
G2Bd f2f2 (df)dB | G2Bd f2f2 d2B2 | G2>A2 B2c2 d2e2 | (fd)Bd c6 z2 ::
[c4e4] e2fe d2ed | c2cd e2ce g4 | a2>(g2 f2)e2 d2c2 | B2g2 g2ag e2c2 |
[c4e4] e2fe d2ed | c2cd e2ce g4 | a2>(g2 f2)e2 d2c2 | (Bc)dB [c6E6] z2 :|
(:musicend:)

[[!Ackord]]

(:music:)
